www/assets/icons/pinch.svg

<svg width="24" height="24" viewBox="0 0 24 24" xmlns="http://www.w3.org/2000/svg" fill='currentColor'><path d="M6.00018 2.5V1H11.0002V6H9.50018V3.56L3.56018 9.5H6.00018V11H1.00018V6H2.50018V8.44L8.44018 2.5H6.00018ZM22.9802 16.82L22.3502 21.28C22.2102 22.27 21.3602 23 20.3702 23H14.2102C13.6802 23 12.9202 22.79 12.5502 22.41L8.00018 17.62L8.83018 16.78C9.07018 16.54 9.41018 16.43 9.75018 16.5L13.0002 17.24V6.5C13.0002 5.67 13.6702 5 14.5002 5C15.3302 5 16.0002 5.67 16.0002 6.5V12.5H16.9102C17.2202 12.5 17.5302 12.57 17.8002 12.71L21.8902 14.75C22.6602 15.14 23.1002 15.97 22.9802 16.82Z"/></svg>

<svg xmlns="http://www.w3.org/2000/svg" width="24" height="24" viewBox="0 0 24 24" fill='currentColor'><path d="M6 2.5V1h5v5H9.5V3.56L3.56 9.5H6V11H1V6h1.5v2.44L8.44 2.5zm16.98 14.32-.63 4.46c-.14.99-.99 1.72-1.98 1.72h-6.16c-.53 0-1.29-.21-1.66-.59L8 17.62l.83-.84c.24-.24.58-.35.92-.28l3.25.74V6.5c0-.83.67-1.5 1.5-1.5s1.5.67 1.5 1.5v6h.91c.31 0 .62.07.89.21l4.09 2.04c.77.39 1.21 1.22 1.09 2.07"/></svg>
